X:105
T:Steyrer Tanz in G, nr. 73
C:traditionell
R:Steirer
A:Hallstatt, Salzkammergut
B:Corpus Musicae Popularis Austriacae (COMPA), 5.Band: J.M.Schmalnauer " Tanz Musik", Verlag Boehlau, Wien 1996
S:manuscript des Johann Michael Schmalnauer um 1820
N:im der quelle in G
Z:abc transcription Simon Wascher
F:http://simonwascher.info/TradArchiv/
M:3/4
L:1/8
K:G
V:1
%violino 1mo
P:h:Ap
Bd |\
cAFfFf | G2 Bdgb | c'a cc'cc' | b2 gdBd |\
cAFfFf | G2 Bdgb | c'afadb | "in D" g4 :|
V:2
%violino 2do
GB |\
AFDcDc | B2 GBdg | afAaAa | g2 dBGB |\
AFDcDc | B2 GBdg | afdcAd | B4 :|
